;FLAVOR:Marlin
;TIME:5236
;Filament used: 4.04537m
;Layer height: 0.2
;MINX:65.272
;MINY:55.75
;MINZ:0.2
;MAXX:154.75
;MAXY:164.248
;MAXZ:4
;TARGET_MACHINE.NAME:Creality Ender-5
;Generated with Cura_SteamEngine 5.9.0
M140 S50
M105
M190 S50
M104 S200
M105
M109 S200
M82 ;absolute extrusion mode
M201 X500.00 Y500.00 Z100.00 E5000.00 ;Setup machine max acceleration
M203 X500.00 Y500.00 Z10.00 E50.00 ;Setup machine max feedrate
M204 P500.00 R1000.00 T500.00 ;Setup Print/Retract/Travel acceleration
M205 X8.00 Y8.00 Z0.40 E5.00 ;Setup Jerk
M220 S100 ;Reset Feedrate
M221 S100 ;Reset Flowrate

G28 ;Home

G92 E0 ;Reset Extruder
G1 Z2.0 F3000 ;Move Z Axis up
G1 X10.1 Y20 Z0.28 F5000.0 ;Move to start position
G1 X10.1 Y200.0 Z0.28 F1500.0 E15 ;Draw the first line
G1 X10.4 Y200.0 Z0.28 F5000.0 ;Move to side a little
G1 X10.4 Y20 Z0.28 F1500.0 E30 ;Draw the second line
G92 E0 ;Reset Extruder
G1 Z2.0 F3000 ;Move Z Axis up

G92 E0
G92 E0
G1 F2700 E-5
;LAYER_COUNT:20
;LAYER:0
M107
G0 F6000 X66.602 Y128.582 Z0.2
;TYPE:SKIRT
G1 F2700 E0
G1 F1200 X66.686 Y126.06 E0.08393
G1 X66.699 Y123.505 E0.16891
G1 X66.641 Y121.003 E0.25215
G1 X66.514 Y118.542 E0.33411
G1 X66.313 Y115.998 E0.41899
G1 X65.879 Y112.215 E0.54564
G1 X65.793 Y111.115 E0.58233
G1 X65.772 Y110.069 E0.61713
G1 X65.791 Y109.434 E0.63826
G1 X65.872 Y108.406 E0.67256
G1 X66.058 Y106.938 E0.72177
G1 X66.197 Y105.98 E0.75397
G1 X66.495 Y103.47 E0.83804
G1 X66.722 Y100.949 E0.92223
G1 X66.874 Y98.449 E1.00553
G1 X66.958 Y95.942 E1.08896
G1 X66.97 Y93.401 E1.17348
G1 X66.91 Y90.883 E1.25725
G1 X66.781 Y88.4 E1.33995
G1 X66.578 Y85.866 E1.4245
G1 X66.309 Y83.389 E1.50737
G1 X65.909 Y80.463 E1.60559
G1 X65.838 Y79.766 E1.62889
G1 X65.793 Y79.112 E1.6507
G1 X65.772 Y78.069 E1.6854
G1 X65.791 Y77.432 E1.70659
G1 X65.88 Y76.34 E1.74303
G1 X65.986 Y75.541 E1.76984
G1 X66.269 Y74.131 E1.81767
G1 X66.36 Y73.793 E1.82931
G1 X66.54 Y73.194 E1.85012
G1 X66.751 Y72.559 E1.87237
G1 X67.152 Y71.538 E1.90886
G1 X67.444 Y70.893 E1.9324
G1 X67.962 Y69.892 E1.96989
G1 X68.21 Y69.47 E1.98617
G1 X68.701 Y68.715 E2.01613
G1 X69.093 Y68.163 E2.03864
G1 X69.77 Y67.304 E2.07502
G1 X70.271 Y66.732 E2.10031
G1 X71.119 Y65.869 E2.14055
G1 X71.445 Y65.574 E2.15518
G1 X72.109 Y65.017 E2.184
G1 X72.624 Y64.621 E2.20561
G1 X73.448 Y64.048 E2.23899
G1 X74.072 Y63.655 E2.26352
G1 X74.914 Y63.179 E2.29569
G1 X76.027 Y62.612 E2.33724
G1 X78.288 Y61.424 E2.42218
G1 X80.562 Y60.146 E2.50894
G1 X82.683 Y58.873 E2.59122
G1 X83.513 Y58.351 E2.62383
G1 X83.938 Y58.098 E2.64028
G1 X84.475 Y57.796 E2.66077
G1 X85.255 Y57.394 E2.68996
G1 X86.034 Y57.045 E2.71835
G1 X86.625 Y56.811 E2.73949
G1 X86.945 Y56.695 E2.75081
G1 X87.774 Y56.431 E2.77975
G1 X88.367 Y56.272 E2.80017
G1 X89.022 Y56.117 E2.82256
G1 X89.91 Y55.948 E2.85262
G1 X90.512 Y55.876 E2.87279
G1 X91.252 Y55.809 E2.8975
G1 X92.034 Y55.766 E2.92355
G1 X92.923 Y55.751 E2.95312
G1 X137.386 Y55.75 E4.43197
G1 X138.621 Y55.777 E4.47305
G1 X139.283 Y55.811 E4.4951
G1 X139.731 Y55.85 E4.51006
G1 X140.714 Y55.981 E4.54304
G1 X141.44 Y56.112 E4.56758
G1 X142.589 Y56.385 E4.60686
G1 X143.365 Y56.629 E4.63391
G1 X143.705 Y56.749 E4.64591
G1 X144.443 Y57.041 E4.6723
G1 X145.284 Y57.422 E4.70301
G1 X145.677 Y57.614 E4.71756
G1 X146.507 Y58.064 E4.74896
G1 X147.257 Y58.545 E4.7786
G1 X147.805 Y58.923 E4.80074
G1 X148.677 Y59.594 E4.83733
G1 X149.124 Y59.976 E4.85689
G1 X149.81 Y60.62 E4.88819
G1 X150.45 Y61.304 E4.91934
G1 X150.903 Y61.83 E4.94243
G1 X151.568 Y62.686 E4.97848
G1 X151.87 Y63.119 E4.99604
G1 X152.337 Y63.85 E5.02489
G1 X152.561 Y64.236 E5.03973
G1 X153.036 Y65.153 E5.07408
G1 X153.388 Y65.919 E5.10212
G1 X153.844 Y67.09 E5.14392
G1 X154.008 Y67.598 E5.16167
G1 X154.253 Y68.482 E5.19218
G1 X154.352 Y68.912 E5.20686
G1 X154.51 Y69.74 E5.2349
G1 X154.598 Y70.333 E5.25483
G1 X154.693 Y71.232 E5.2849
G1 X154.738 Y72.094 E5.31361
G1 X154.75 Y72.789 E5.33673
G1 X154.748 Y83.574 E5.69544
G1 X154.725 Y84.558 E5.72818
G1 X154.69 Y85.225 E5.75039
G1 X154.577 Y86.555 E5.79479
G1 X154.397 Y89.083 E5.87908
G1 X154.287 Y91.661 E5.96491
G1 X154.25 Y94.165 E6.0482
G1 X154.285 Y96.66 E6.13119
G1 X154.391 Y99.19 E6.21541
G1 X154.571 Y101.729 E6.30007
G1 X154.687 Y103.146 E6.34736
G1 X154.722 Y103.816 E6.36967
G1 X154.75 Y105.318 E6.41964
G1 X154.748 Y115.572 E6.76069
G1 X154.725 Y116.565 E6.79372
G1 X154.689 Y117.234 E6.81601
G1 X154.629 Y117.923 E6.83901
G1 X154.315 Y121.003 E6.94198
G1 X154.137 Y123.493 E7.02501
G1 X154.028 Y126.037 E7.1097
G1 X153.99 Y128.535 E7.1928
G1 X154.024 Y131.033 E7.27589
G1 X154.086 Y132.704 E7.3315
G1 X154.238 Y135.599 E7.42793
G1 X154.25 Y136.299 E7.45121
G1 X154.248 Y147.055 E7.80896
G1 X154.225 Y148.059 E7.84236
G1 X154.19 Y148.74 E7.86504
G1 X154.149 Y149.213 E7.88083
G1 X154.017 Y150.203 E7.91405
G1 X153.895 Y150.869 E7.93657
G1 X153.61 Y152.05 E7.97698
G1 X153.427 Y152.652 E7.9979
G1 X153.1 Y153.578 E8.03057
G1 X152.885 Y154.108 E8.04959
G1 X152.569 Y154.808 E8.07513
G1 X152.392 Y155.16 E8.08824
G1 X151.939 Y155.98 E8.1194
G1 X151.569 Y156.582 E8.1429
G1 X150.883 Y157.567 E8.18282
G1 X150.457 Y158.108 E8.20573
G1 X149.798 Y158.866 E8.23913
G1 X149.427 Y159.254 E8.25699
G1 X148.881 Y159.787 E8.28237
G1 X148.318 Y160.287 E8.30741
G1 X148.097 Y160.472 E8.317
G1 X147.191 Y161.155 E8.35473
G1 X146.485 Y161.63 E8.38303
G1 X145.454 Y162.243 E8.42293
G1 X144.954 Y162.503 E8.44167
G1 X144.125 Y162.889 E8.47209
G1 X143.733 Y163.05 E8.48618
G1 X142.726 Y163.407 E8.52172
G1 X141.893 Y163.657 E8.55064
G1 X140.965 Y163.89 E8.58247
G1 X140.463 Y163.98 E8.59943
G1 X139.729 Y164.095 E8.62414
G1 X138.779 Y164.198 E8.65592
G1 X138.298 Y164.218 E8.67194
G1 X136.89 Y164.248 E8.71878
G1 X92.376 Y164.248 E10.19932
G1 X91.39 Y164.225 E10.23212
G1 X90.712 Y164.188 E10.25471
G1 X90.235 Y164.147 E10.27063
G1 X89.289 Y164.021 E10.30237
G1 X88.717 Y163.918 E10.3217
G1 X87.74 Y163.694 E10.35504
G1 X87.181 Y163.538 E10.37434
G1 X86.297 Y163.251 E10.40526
G1 X85.947 Y163.119 E10.4177
G1 X85.258 Y162.833 E10.44251
G1 X84.805 Y162.624 E10.4591
G1 X83.971 Y162.197 E10.49027
G1 X83.157 Y161.728 E10.52151
G1 X81.713 Y160.838 E10.57793
G1 X79.574 Y159.57 E10.66063
G1 X77.386 Y158.354 E10.74389
G1 X74.366 Y156.8 E10.85685
G1 X73.809 Y156.491 E10.87804
G1 X73.451 Y156.278 E10.89189
G1 X72.712 Y155.797 E10.92122
G1 X72.143 Y155.392 E10.94445
G1 X71.308 Y154.733 E10.97983
G1 X70.741 Y154.238 E11.00486
G1 X69.882 Y153.395 E11.04489
G1 X69.577 Y153.061 E11.05994
G1 X69.013 Y152.386 E11.08919
G1 X68.618 Y151.872 E11.11076
G1 X68.045 Y151.049 E11.14411
G1 X67.66 Y150.437 E11.16816
G1 X67.246 Y149.718 E11.19575
G1 X66.84 Y148.898 E11.22619
G1 X66.505 Y148.109 E11.2547
G1 X66.235 Y147.397 E11.28002
G1 X65.883 Y146.292 E11.31859
G1 X65.765 Y145.836 E11.33426
G1 X65.573 Y144.936 E11.36487
G1 X65.457 Y144.248 E11.38807
G1 X65.333 Y143.204 E11.42304
G1 X65.292 Y142.6 E11.44318
G1 X65.272 Y141.568 E11.47751
G1 X65.291 Y140.934 E11.4986
G1 X65.372 Y139.905 E11.53293
G1 X65.488 Y139.003 E11.56318
G1 X65.924 Y136.072 E11.66174
G1 X66.222 Y133.572 E11.74548
G1 X66.45 Y131.042 E11.82997
G1 X66.602 Y128.582 E11.91194
G0 F6000 X67.002 Y128.595
G1 F1200 X66.848 Y131.078 E11.99469
G1 X66.619 Y133.619 E12.07955
G1 X66.32 Y136.131 E12.16368
G1 X65.884 Y139.062 E12.26224
G1 X65.769 Y139.956 E12.29222
G1 X65.69 Y140.965 E12.32588
G1 X65.672 Y141.58 E12.34635
G1 X65.692 Y142.592 E12.38001
G1 X65.732 Y143.177 E12.39952
G1 X65.854 Y144.201 E12.43382
G1 X65.967 Y144.869 E12.45635
G1 X66.156 Y145.752 E12.48638
G1 X66.27 Y146.191 E12.50147
G1 X66.616 Y147.275 E12.53931
G1 X66.879 Y147.967 E12.56394
G1 X67.199 Y148.721 E12.59118
G1 X67.593 Y149.518 E12.62075
G1 X68.007 Y150.237 E12.64835
G1 X68.384 Y150.836 E12.67189
G1 X68.946 Y151.643 E12.70459
G1 X69.33 Y152.142 E12.72554
G1 X69.884 Y152.804 E12.75425
G1 X70.177 Y153.125 E12.7687
G1 X71.021 Y153.952 E12.808
G1 X71.571 Y154.432 E12.83228
G1 X72.391 Y155.078 E12.867
G1 X72.944 Y155.471 E12.88957
G1 X73.656 Y155.934 E12.91782
G1 X74.014 Y156.147 E12.93167
G1 X74.56 Y156.45 E12.95244
G1 X77.569 Y157.998 E13.06499
G1 X79.768 Y159.22 E13.14866
G1 X81.923 Y160.497 E13.23198
G1 X83.367 Y161.387 E13.28839
G1 X84.171 Y161.85 E13.31925
G1 X84.987 Y162.268 E13.34975
G1 X85.425 Y162.469 E13.36577
G1 X86.101 Y162.75 E13.39012
G1 X86.438 Y162.877 E13.4021
G1 X87.304 Y163.158 E13.43238
G1 X87.847 Y163.309 E13.45113
G1 X88.806 Y163.528 E13.48385
G1 X89.359 Y163.627 E13.50253
G1 X90.288 Y163.75 E13.5337
G1 X90.747 Y163.79 E13.54902
G1 X91.412 Y163.826 E13.57117
G1 X92.385 Y163.848 E13.60354
G1 X136.881 Y163.848 E15.08349
G1 X138.289 Y163.818 E15.13033
G1 X138.762 Y163.798 E15.14607
G1 X139.686 Y163.697 E15.17699
G1 X140.401 Y163.585 E15.20106
G1 X140.894 Y163.496 E15.21772
G1 X141.795 Y163.269 E15.24863
G1 X142.611 Y163.024 E15.27696
G1 X143.599 Y162.673 E15.31184
G1 X143.956 Y162.526 E15.32468
G1 X144.785 Y162.14 E15.35509
G1 X145.269 Y161.888 E15.37324
G1 X146.28 Y161.286 E15.41238
G1 X146.967 Y160.823 E15.43993
G1 X147.84 Y160.165 E15.47629
G1 X148.061 Y159.98 E15.48588
G1 X148.615 Y159.488 E15.51052
G1 X149.148 Y158.968 E15.53529
G1 X149.509 Y158.59 E15.55267
G1 X150.155 Y157.846 E15.58545
G1 X150.555 Y157.338 E15.60695
G1 X151.241 Y156.353 E15.64687
G1 X151.598 Y155.771 E15.66958
G1 X152.042 Y154.967 E15.70013
G1 X152.204 Y154.643 E15.71218
G1 X152.52 Y153.943 E15.73772
G1 X152.729 Y153.428 E15.75621
G1 X153.05 Y152.519 E15.78827
G1 X153.227 Y151.934 E15.8086
G1 X153.506 Y150.775 E15.84825
G1 X153.623 Y150.131 E15.87002
G1 X153.75 Y149.178 E15.902
G1 X153.791 Y148.705 E15.91779
G1 X153.826 Y148.038 E15.94
G1 X153.848 Y147.046 E15.97301
G1 X153.85 Y136.299 E16.33045
G1 X153.838 Y135.606 E16.35351
G1 X153.687 Y132.719 E16.44966
G1 X153.624 Y131.048 E16.50528
G1 X153.59 Y128.529 E16.58907
G1 X153.628 Y126.02 E16.67253
G1 X153.738 Y123.464 E16.75762
G1 X153.917 Y120.962 E16.84105
G1 X154.231 Y117.882 E16.94402
G1 X154.29 Y117.2 E16.96679
G1 X154.326 Y116.543 E16.98867
G1 X154.348 Y115.563 E17.02128
G1 X154.35 Y105.318 E17.36203
G1 X154.322 Y103.823 E17.41176
G1 X154.288 Y103.167 E17.43361
G1 X154.172 Y101.762 E17.4805
G1 X153.991 Y99.207 E17.56569
G1 X153.885 Y96.677 E17.64991
G1 X153.85 Y94.159 E17.73367
G1 X153.887 Y91.644 E17.81733
G1 X153.997 Y89.066 E17.90315
G1 X154.178 Y86.521 E17.98801
G1 X154.291 Y85.191 E18.0324
G1 X154.326 Y84.537 E18.05419
G1 X154.348 Y83.565 E18.08652
G1 X154.35 Y72.789 E18.44494
G1 X154.338 Y72.101 E18.46782
G1 X154.295 Y71.274 E18.49537
G1 X154.2 Y70.375 E18.52543
G1 X154.114 Y69.799 E18.5448
G1 X153.959 Y68.987 E18.5723
G1 X153.863 Y68.572 E18.58647
G1 X153.627 Y67.721 E18.61584
G1 X153.463 Y67.213 E18.63359
G1 X153.015 Y66.064 E18.67461
G1 X152.673 Y65.32 E18.70185
G1 X152.206 Y64.42 E18.73557
G1 X151.991 Y64.051 E18.74977
G1 X151.533 Y63.334 E18.77807
G1 X151.24 Y62.915 E18.79508
G1 X150.587 Y62.075 E18.83046
G1 X150.147 Y61.565 E18.85287
G1 X149.536 Y60.912 E18.88261
G1 X148.85 Y60.268 E18.91391
G1 X148.417 Y59.898 E18.93285
G1 X147.561 Y59.24 E18.96876
G1 X147.03 Y58.874 E18.99021
G1 X146.316 Y58.416 E19.01842
G1 X145.486 Y57.966 E19.04983
G1 X145.108 Y57.781 E19.06382
G1 X144.278 Y57.406 E19.09412
G1 X143.558 Y57.121 E19.11987
G1 X143.232 Y57.006 E19.13137
G1 X142.497 Y56.774 E19.157
G1 X141.369 Y56.506 E19.19557
G1 X140.643 Y56.375 E19.2201
G1 X139.678 Y56.247 E19.25248
G1 X139.249 Y56.21 E19.2668
G1 X138.6 Y56.176 E19.28842
G1 X137.377 Y56.15 E19.3291
G1 X92.923 Y56.151 E20.80765
G1 X92.041 Y56.166 E20.83699
G1 X91.274 Y56.208 E20.86254
G1 X90.559 Y56.273 E20.88642
G1 X89.985 Y56.341 E20.90564
G1 X89.097 Y56.51 E20.93571
G1 X88.459 Y56.661 E20.95751
G1 X87.878 Y56.817 E20.97752
G1 X87.067 Y57.076 E21.00584
G1 X86.761 Y57.187 E21.01666
G1 X86.182 Y57.417 E21.03738
G1 X85.419 Y57.759 E21.06519
G1 X84.671 Y58.145 E21.09319
G1 X84.134 Y58.447 E21.11368
G1 X83.718 Y58.695 E21.12979
G1 X82.896 Y59.212 E21.16209
G1 X80.758 Y60.495 E21.24502
G1 X78.484 Y61.773 E21.33178
G1 X76.209 Y62.968 E21.41725
G1 X75.096 Y63.535 E21.4588
G1 X74.269 Y64.003 E21.4904
G1 X73.661 Y64.386 E21.5143
G1 X72.853 Y64.949 E21.54705
G1 X72.353 Y65.334 E21.56804
G1 X71.702 Y65.88 E21.5963
G1 X71.388 Y66.165 E21.61041
G1 X70.556 Y67.012 E21.6499
G1 X70.071 Y67.567 E21.67441
G1 X69.419 Y68.395 E21.70946
G1 X69.027 Y68.947 E21.73198
G1 X68.546 Y69.688 E21.76136
G1 X68.317 Y70.076 E21.77635
G1 X67.799 Y71.077 E21.81384
G1 X67.516 Y71.703 E21.83669
G1 X67.131 Y72.685 E21.87177
G1 X66.92 Y73.32 E21.89402
G1 X66.743 Y73.908 E21.91445
G1 X66.655 Y74.235 E21.92571
G1 X66.383 Y75.594 E21.97181
G1 X66.277 Y76.393 E21.99862
G1 X66.19 Y77.464 E22.03435
G1 X66.172 Y78.081 E22.05488
G1 X66.193 Y79.104 E22.08892
G1 X66.237 Y79.738 E22.11005
G1 X66.307 Y80.422 E22.13292
G1 X66.707 Y83.346 E22.23108
G1 X66.977 Y85.834 E22.31432
G1 X67.18 Y88.368 E22.39887
G1 X67.31 Y90.874 E22.48233
G1 X67.37 Y93.403 E22.56647
G1 X67.358 Y95.955 E22.65135
G1 X67.274 Y98.462 E22.73478
G1 X67.12 Y100.985 E22.81885
G1 X66.892 Y103.517 E22.90341
G1 X66.593 Y106.037 E22.98781
G1 X66.454 Y106.995 E23.02001
G1 X66.269 Y108.456 E23.06899
G1 X66.19 Y109.465 E23.10265
G1 X66.172 Y110.081 E23.12315
G1 X66.193 Y111.107 E23.15728
G1 X66.278 Y112.183 E23.19318
G1 X66.711 Y115.966 E23.31982
G1 X66.913 Y118.51 E23.4047
G1 X67.041 Y120.994 E23.48743
G1 X67.099 Y123.507 E23.57104
G1 X67.086 Y126.073 E23.65638
G1 X67.002 Y128.595 E23.74031
G0 F6000 X67.402 Y128.608
G1 F1200 X67.486 Y126.086 E23.82424
G1 X67.499 Y123.509 E23.90995
G1 X67.441 Y120.985 E23.99392
G1 X67.312 Y118.478 E24.07742
G1 X67.109 Y115.934 E24.1623
G1 X66.677 Y112.151 E24.28894
G1 X66.593 Y111.099 E24.32404
G1 X66.572 Y110.092 E24.35754
G1 X66.589 Y109.496 E24.37737
G1 X66.666 Y108.506 E24.4104
G1 X66.85 Y107.052 E24.45915
G1 X66.989 Y106.094 E24.49134
G1 X67.289 Y103.564 E24.57608
G1 X67.518 Y101.021 E24.661
G1 X67.674 Y98.475 E24.74584
G1 X67.758 Y95.968 E24.82927
G1 X67.77 Y93.405 E24.91452
G1 X67.71 Y90.865 E24.99902
G1 X67.579 Y88.336 E25.08325
G1 X67.376 Y85.802 E25.1678
G1 X67.105 Y83.303 E25.25141
G1 X66.705 Y80.381 E25.3495
G1 X66.636 Y79.71 E25.37194
G1 X66.593 Y79.096 E25.39241
G1 X66.572 Y78.092 E25.42581
G1 X66.589 Y77.496 E25.44564
G1 X66.674 Y76.446 E25.48068
G1 X66.78 Y75.647 E25.50748
G1 X67.041 Y74.339 E25.55185
G1 X67.126 Y74.023 E25.56273
G1 X67.299 Y73.446 E25.58276
G1 X67.504 Y72.831 E25.60433
G1 X67.881 Y71.867 E25.63875
G1 X68.154 Y71.261 E25.66086
G1 X68.662 Y70.279 E25.69763
G1 X68.882 Y69.905 E25.71206
G1 X69.353 Y69.178 E25.74088
G1 X69.733 Y68.642 E25.76273
G1 X70.372 Y67.83 E25.7971
G1 X70.842 Y67.292 E25.82086
G1 X71.657 Y66.461 E25.85957
G1 X71.959 Y66.186 E25.87315
G1 X72.597 Y65.651 E25.90085
G1 X73.082 Y65.277 E25.92122
G1 X73.874 Y64.724 E25.95335
G1 X74.466 Y64.351 E25.97662
G1 X75.277 Y63.891 E26.00763
G1 X76.395 Y63.322 E26.04935
G1 X78.68 Y62.122 E26.1352
G1 X80.954 Y60.844 E26.22195
G1 X83.109 Y59.551 E26.30554
G1 X83.923 Y59.039 E26.33753
G1 X84.339 Y58.791 E26.35363
G1 X84.855 Y58.5 E26.37334
G1 X85.583 Y58.124 E26.40059
G1 X86.33 Y57.789 E26.42782
G1 X86.897 Y57.563 E26.44812
G1 X87.189 Y57.457 E26.45845
G1 X87.982 Y57.203 E26.48615
G1 X88.551 Y57.05 E26.50575
G1 X89.172 Y56.903 E26.52697
G1 X90.06 Y56.734 E26.55704
G1 X90.595 Y56.671 E26.57495
G1 X91.296 Y56.607 E26.59837
G1 X92.048 Y56.566 E26.62341
G1 X92.923 Y56.551 E26.65252
G1 X137.369 Y56.55 E28.1308
G1 X138.579 Y56.575 E28.17105
G1 X139.215 Y56.609 E28.19224
G1 X139.626 Y56.644 E28.20596
G1 X140.572 Y56.769 E28.2377
G1 X141.298 Y56.9 E28.26223
G1 X142.377 Y57.156 E28.29912
G1 X143.099 Y57.383 E28.32429
